!!!OTL: ES JAGT EIN JAEGER GESCHWINDE
!!!ARE: Europa, Mitteleuropa, Deutschland
!!!SCT: E1445
!!!YEM: Copyright 1995, estate of Helmut Schaffrath.
**kern
*ICvox
*Ivox
*M6/4
*k[b-]
*F:
{4c
=1
2f
4g
4a
4f
4cc
=2
2cc
4b-
2a}
{4g
=3
2a
4b-
2cc
4b-
=4
[2.cc
2cc]}
{4c
=5
2f
4g
4a
4f
4cc
=6
2cc
4b-
2a}
{4g
=7
2a
4b-
2cc
4b-
=8
[2.cc
2cc]}
{4cc
=9
2b-
4g
4.a
8g
8a
8b-
=10
4.cc
8b-
4cc
2f}
{4f
=11
2g
4g
2e
4d
=12
1c
4r}
{4c
=13
2f
4f
2g
4g
=14
4.a
8g
4a
2f
4r}
=15
{4.a
8b-
4cc
4a
4f
4g
=16
2.f
2r}
{4cc
=17
2cc
4cc
4.g
8a
4b-
=18
2cc
4a
2g}
{4a
=19
2cc
4b-
4a
4b-
4g
=20
1f
4r}
==
!!!AGN: Staende -, Jaeger - Lied
!!!ONB: ESAC (Essen Associative Code) Database: ERK3
!!!AMT: compound duple
!!!AIN: vox
!!!EED: Helmut Schaffrath
!!!EEV: 1.0
*-
